svgs/thin/barcode-read.svg

<svg xmlns="http://www.w3.org/2000/svg" viewBox="0 0 576 512"><!--! Font Awesome Pro 6.5.1 by @fontawesome - https://fontawesome.com License - https://fontawesome.com/license (Commercial License) Copyright 2023 Fonticons, Inc. --><path d="M40 16C26.7 16 16 26.7 16 40V152c0 4.4-3.6 8-8 8s-8-3.6-8-8V40C0 17.9 17.9 0 40 0H152c4.4 0 8 3.6 8 8s-3.6 8-8 8H40zm96 112c4.4 0 8 3.6 8 8V376c0 4.4-3.6 8-8 8s-8-3.6-8-8V136c0-4.4 3.6-8 8-8zm48 0c4.4 0 8 3.6 8 8V376c0 4.4-3.6 8-8 8s-8-3.6-8-8V136c0-4.4 3.6-8 8-8zm56 8c0-4.4 3.6-8 8-8s8 3.6 8 8V376c0 4.4-3.6 8-8 8s-8-3.6-8-8V136zm88-8c4.4 0 8 3.6 8 8V376c0 4.4-3.6 8-8 8s-8-3.6-8-8V136c0-4.4 3.6-8 8-8zm40 8c0-4.4 3.6-8 8-8s8 3.6 8 8V376c0 4.4-3.6 8-8 8s-8-3.6-8-8V136zm72-8c4.4 0 8 3.6 8 8V376c0 4.4-3.6 8-8 8s-8-3.6-8-8V136c0-4.4 3.6-8 8-8zM560 40c0-13.3-10.7-24-24-24H424c-4.4 0-8-3.6-8-8s3.6-8 8-8H536c22.1 0 40 17.9 40 40V152c0 4.4-3.6 8-8 8s-8-3.6-8-8V40zM40 496H152c4.4 0 8 3.6 8 8s-3.6 8-8 8H40c-22.1 0-40-17.9-40-40V360c0-4.4 3.6-8 8-8s8 3.6 8 8V472c0 13.3 10.7 24 24 24zm520-24V360c0-4.4 3.6-8 8-8s8 3.6 8 8V472c0 22.1-17.9 40-40 40H424c-4.4 0-8-3.6-8-8s3.6-8 8-8H536c13.3 0 24-10.7 24-24z"/></svg>

<svg xmlns="http://www.w3.org/2000/svg" viewBox="0 0 576 512"><!--! Font Awesome Pro 6.1.1 by @fontawesome - https://fontawesome.com License - https://fontawesome.com/license (Commercial License) Copyright 2022 Fonticons, Inc. --><path d="M40 16C26.75 16 16 26.75 16 40V152C16 156.4 12.42 160 8 160C3.582 160 0 156.4 0 152V40C0 17.91 17.91 0 40 0H152C156.4 0 160 3.582 160 8C160 12.42 156.4 16 152 16H40zM144 136V376C144 380.4 140.4 384 136 384C131.6 384 128 380.4 128 376V136C128 131.6 131.6 128 136 128C140.4 128 144 131.6 144 136zM192 136V376C192 380.4 188.4 384 184 384C179.6 384 176 380.4 176 376V136C176 131.6 179.6 128 184 128C188.4 128 192 131.6 192 136zM240 136C240 131.6 243.6 128 248 128C252.4 128 256 131.6 256 136V376C256 380.4 252.4 384 248 384C243.6 384 240 380.4 240 376V136zM336 136V376C336 380.4 332.4 384 328 384C323.6 384 320 380.4 320 376V136C320 131.6 323.6 128 328 128C332.4 128 336 131.6 336 136zM368 136C368 131.6 371.6 128 376 128C380.4 128 384 131.6 384 136V376C384 380.4 380.4 384 376 384C371.6 384 368 380.4 368 376V136zM448 136V376C448 380.4 444.4 384 440 384C435.6 384 432 380.4 432 376V136C432 131.6 435.6 128 440 128C444.4 128 448 131.6 448 136zM560 40C560 26.75 549.3 16 536 16H424C419.6 16 416 12.42 416 8C416 3.582 419.6 0 424 0H536C558.1 0 576 17.91 576 40V152C576 156.4 572.4 160 568 160C563.6 160 560 156.4 560 152V40zM152 496C156.4 496 160 499.6 160 504C160 508.4 156.4 512 152 512H40C17.91 512 0 494.1 0 472V360C0 355.6 3.582 352 8 352C12.42 352 16 355.6 16 360V472C16 485.3 26.75 496 40 496H152zM560 360C560 355.6 563.6 352 568 352C572.4 352 576 355.6 576 360V472C576 494.1 558.1 512 536 512H424C419.6 512 416 508.4 416 504C416 499.6 419.6 496 424 496H536C549.3 496 560 485.3 560 472V360z"/></svg>
